public/assets/img/svg/journey.svg

<svg data-name="Layer 1" xmlns="http://www.w3.org/2000/svg" width="1136" height="647.595"><circle cx="248" cy="214.523" r="86" fill="#ff6584"/><path d="M1100.4 611.792a174.165 174.165 0 0 1-15.93 12.73 201.787 201.787 0 0 1-42.43 22.81c-62.35-1.5-154.01-9.15-269.71-13.23q-12.945-4.424-26.48-9.58-17.91-6.825-36.85-15c-52.44-22.66-106.28-37.39-159.61-46.19q-17.19-2.835-34.29-4.86c-240.82-28.8-462.9 55.82-488.62 66.05H24l15.82-30.64L309 72.523l62.95 161.62 20.09 51.59 55.37-75.98 28.59-39.23 130.2 149.27 36.8-81.27 254.78 207.92 14.21 11.59 14.38 11.74 4.58 3.74 136.21 111.16z" fill="#f2f2f2"/><path opacity=".1" d="M285 177.523l26-57 36 83-31-60-31 34zm264.39 385.81q-17.19-2.835-34.29-4.86l-123.06-272.74zM447.411 209.752L476 187.523l130 150-132-128-26.589.229zm158.786 110.037L866 568.523l-35.536 8.381-224.267-257.115z"/><path d="M1136 625.023c0 19.37-32.96 23.78-93.96 22.31-62.35-1.5-154.01-9.15-269.71-13.23-43.76-1.54-90.97-2.58-141.33-2.58-313.7 0-631 40.17-631-6.5 0-11 14.12-21.5 39.82-31.14 76.2-28.58 254.18-49.51 467.4-52.88q14.55-.24 29.31-.35 15.63-.135 31.47-.13c84.77 0 165.21 2.76 237.46 7.71.23.02.45.04.68.05q8.7.6 17.23 1.24 9.315.705 18.43 1.45c1.25.1 2.5.2 3.74.31.9.07 1.8.15 2.69.23 1.64.13 3.28.27 4.9.42a.914.914 0 0 1 .17.01q4.47.39 8.88.78c.31.03.62.06.93.08 85.45 7.75 156.07 18.76 204.05 31.87 43.9 11.99 68.84 25.73 68.84 40.35zM70.887 458.182c0 64.016 40.16 115.817 89.79 115.817" fill="#3f3d56"/><path d="M160.678 574c0-64.736 44.816-117.12 100.2-117.12m-157.458 7.105c0 60.809 25.61 110.014 57.258 110.014" fill="#21a32f"/><path d="M160.678 574c0-82.718 51.8-149.652 115.817-149.652" fill="#3f3d56"/><path d="M141.788 574.816s12.734-.392 16.571-3.125 19.588-5.996 20.54-1.613 19.137 21.797 4.76 21.913-33.404-2.239-37.234-4.572-4.637-12.603-4.637-12.603z" fill="#a8a8a8"/><path d="M183.916 590.466c-14.377.116-33.404-2.24-37.235-4.573-2.917-1.777-4.08-8.152-4.468-11.094-.27.012-.425.017-.425.017s.806 10.27 4.637 12.603 22.858 4.688 37.234 4.572c4.15-.033 5.584-1.51 5.505-3.696-.577 1.32-2.16 2.146-5.248 2.17z" opacity=".2"/><path d="M762.887 449.182c0 64.016 40.16 115.817 89.79 115.817z" fill="#3f3d56"/><path d="M852.678 565c0-64.736 44.816-117.12 100.2-117.12zM795.42 454.984c0 60.809 25.61 110.014 57.258 110.014z" fill="#21a32f"/><path d="M852.678 565c0-82.718 51.8-149.652 115.817-149.652z" fill="#3f3d56"/><path d="M833.788 565.816s12.734-.392 16.571-3.125 19.588-5.996 20.54-1.613 19.137 21.797 4.76 21.913-33.404-2.239-37.234-4.572-4.637-12.603-4.637-12.603z" fill="#a8a8a8"/><path d="M875.916 581.466c-14.377.116-33.404-2.24-37.235-4.573-2.917-1.777-4.08-8.152-4.468-11.094-.27.012-.425.017-.425.017s.806 10.27 4.637 12.603 22.858 4.688 37.234 4.572c4.15-.033 5.584-1.51 5.505-3.696-.577 1.32-2.16 2.146-5.248 2.17z" opacity=".2"/><path fill="#3f3d56" d="M481 440.479h18v32.087h-18z"/><circle cx="490" cy="449.088" r="3.522" fill="#f2f2f2"/><path d="M492.182 413.059s-5.478 31.775 4.383 32.87 1.096-33.966 1.096-33.966z" fill="#ffb9b9"/><path d="M498.756 304.586s-11.504 109.02-8.217 110.664 12.052 3.835 13.696 2.192 8.218-69.029 8.218-69.029l-4.931-35.062z" fill="#575a89"/><path d="M498.756 304.586s-11.504 109.02-8.217 110.664 12.052 3.835 13.696 2.192 8.218-69.029 8.218-69.029l-4.931-35.062z" opacity=".1"/><path fill="#2f2e41" d="M519.848 255.554h34.514v37.253h-34.514z"/><path d="M527.792 272.263s-1.096 24.105-8.765 25.749 7.122 29.583 7.122 29.583l23.01-2.191 5.478-32.87s-12.6-2.192-8.218-19.175z" fill="#ffb9b9"/><path d="M527.792 272.263s-1.096 24.105-8.765 25.749 7.122 29.583 7.122 29.583l23.01-2.191 5.478-32.87s-12.6-2.192-8.218-19.175z" opacity=".1"/><path fill="#ffb9b9" d="M528.888 547.829l1.643 9.313 9.862-2.191-2.192-9.314-9.313 2.192zm31.227-14.244l-3.287 9.861 10.409 5.478.548-8.217-7.67-7.122z"/><path d="M517.383 385.667s-13.148 38.349-10.409 56.428 13.696 104.09 13.696 104.09 12.6 8.218 20.27-1.096l-5.478-73.41s1.096-44.376 5.478-39.993 21.366 55.88 21.366 55.88l-3.287 46.567s1.644 14.244 11.505 8.217l13.696-51.497s-4.383-69.029-6.574-71.768-16.435-34.514-16.435-34.514z" fill="#2f2e41"/><circle cx="539.023" cy="267.058" r="15.887" fill="#ffb9b9"/><path d="M522.862 306.23s6.026 8.765 13.696 2.739 12.052-6.575 12.052-6.575l9.314 5.479-2.192 21.366 3.287 59.167s-39.992 3.287-42.184-1.096 2.74-23.01 2.74-23.01l-7.122-39.992V306.23z" fill="#21a32f"/><path d="M535.462 322.117s-9.861-30.132-13.148-30.68-12.6 6.027-12.6 6.027-13.697 4.383-13.697 7.122 2.192 2.74 2.192 2.74l7.67 14.79s3.286 13.15 2.19 21.915a88.14 88.14 0 0 0-.547 15.887s-12.053 72.316-6.026 74.507 6.026 4.383 6.026 4.383 8.765 4.93 10.409 2.739 17.53-96.42 17.53-96.42 8.219-15.888.001-23.01z" fill="#575a89"/><path d="M537.653 322.117s4.931-11.505 2.192-19.175c0 0 2.739-.548 3.835-2.191s0-9.861 2.739-10.41 23.01 0 24.105 1.097 4.383 8.765 4.383 8.765h-1.644l-12.052 19.722s6.026 37.254 4.93 43.28 15.888 31.227 18.08 32.87 12.052 27.94 7.669 30.68-42.732 20.27-44.375 11.505-13.149-61.359-13.149-61.359-.548-29.035 1.096-36.157 2.191-18.627 2.191-18.627z" fill="#575a89"/><path d="M563.402 409.772s-11.505 37.801 0 36.158 8.765-37.254 8.765-37.254z" fill="#ffb9b9"/><path d="M539.321 554.97s9.083 2.595 8.434 8.434a9.716 9.716 0 0 1-5.839 7.785 5.864 5.864 0 0 0-2.595 5.84c.649 3.892-5.19 9.731-14.922 7.136s-7.785-5.19-7.785-5.19a11.268 11.268 0 0 1 4.541-7.137c3.893-2.595 8.435-11.678 8.435-12.327s1.297-5.19 1.297-5.19 5.19-3.244 8.434.649zm19.15-12.62s-9.86 4.383-7.67 9.861 9.314 13.149 10.41 21.366 10.409 15.34 16.983 10.957-1.096-13.148-1.096-13.148-8.218-15.34-8.765-18.627 1.095-6.574-2.192-7.67-7.67-2.739-7.67-2.739z" fill="#2f2e41"/><path d="M572.99 305.955s-1.37-6.3.273-2.465 13.696 50.402 2.74 78.342c0 0-1.096 34.514-2.192 34.514s-14.244-.548-13.696-4.383 1.644-65.741 1.644-69.576 1.917-28.762 1.917-28.762z" opacity=".1"/><path d="M570.524 296.368a33.12 33.12 0 0 1 4.383 7.122c1.643 3.835 13.696 50.402 2.739 78.342 0 0-1.096 34.514-2.191 34.514s-14.244-.548-13.697-4.383 1.644-65.741 1.644-69.576-3.287-29.583-3.287-29.583z" fill="#575a89"/><path d="M530.067 239.088c-5.749 1.797-10.04 6.493-14.04 10.995a23.298 23.298 0 0 0-3.92 5.365 21.605 21.605 0 0 0-1.582 7.886q-.4 6.287-.255 12.593c.092 4.027.339 8.156-.9 11.99-1.196 3.705-3.688 6.838-5.399 10.337-2.73 5.58-3.36 12.353-.84 18.032 1.387 3.126 3.632 5.786 5.31 8.766a27.151 27.151 0 0 1 3.12 17.463l7.888-10.22c5.053-6.545 10.265-13.442 11.687-21.588 2.062-11.815-4.24-23.388-5.484-35.317-.347-3.326-.23-6.918 1.652-9.682 2.78-4.08 8.824-5.522 10.495-10.167.242 1.945 11.895 8.14 13.298 6.935a14.51 14.51 0 0 1-2.201 14.015c-1.128 1.4-2.515 2.579-3.615 4.001-2.849 3.684-3.497 8.652-3.095 13.291s1.738 9.146 2.444 13.75a102.113 102.113 0 0 1 .853 13.824c.053 3.2-.035 6.77-2.279 9.051a27.395 27.395 0 0 0 9.861-6.043 49.113 49.113 0 0 1 4.919-4.662c3.529-2.546 8.31-3.301 11.189-6.564 2.57-2.914 2.98-7.188 2.376-11.025s-2.076-7.49-2.816-11.304a30.364 30.364 0 0 1 .762-14.584c1.048-3.433 2.72-6.743 2.925-10.326.417-7.31-5.22-13.424-10.638-18.348-8.118-7.375-20.69-11.911-31.715-8.464z" fill="#2f2e41"/><path d="M995.395 104.367c-4.857 1.793-13.383 3.26-23.254 4.444-26.838 3.22-63.62 4.364-63.62 4.364s-189.025 15.679-330.706-42.631c0 0-20.608-10.806-1.465-25.344a61.778 61.778 0 0 1 9.348-5.707s.08-.08.236-.23a49.534 49.534 0 0 1 7.023-5.414c7.339-4.744 19.734-10.373 34.816-7.824l372.092 60.187s13.591 11.483-4.47 18.155z" fill="#f2f2f2"/><path d="M921.25 77.092l77.9-55.27 34.334 5.937-33.62 58.452s-77.72.618-78.614-9.119zM725.129 43.517L880.294 0l25.013 5.226-70.091 31.53-21.91 24.508-88.177-17.747zm247.012 65.293c-26.838 3.221-63.62 4.365-63.62 4.365s-189.025 15.679-330.706-42.631c0 0-20.608-10.806-1.465-25.344l.065.266s30.57 20.662 176.636 37.914z" fill="#f2f2f2"/><path d="M947.198 107.616l69.376 28.324 17.426-1.935-41.496-31.185s-50.189-10.703-45.306 4.796zM601.544 48.492c-3.313.058-10.896-5.496-15.61-9.23a49.534 49.534 0 0 1 7.023-5.413c3.8 2.916 10.565 7.64 14.326 7.47 5.428-.242-.756 7.087-5.74 7.173zm315.158 157.04l-44.539 2.328-125.22-84.44-23.246-15.676-11.299-7.619c21.187-17.907 107.616 6.783 107.616 6.783 1.656 1.397 2.18 3.717 2.105 6.28-.142 4.801-2.397 10.453-3.266 12.465-.21.485-.338.757-.338.757z" fill="#f2f2f2"/><path d="M995.395 104.367c-4.857 1.793-13.383 3.26-23.254 4.444-26.838 3.22-63.62 4.364-63.62 4.364s-189.025 15.679-330.706-42.631c0 0-20.608-10.806-1.465-25.344a61.778 61.778 0 0 1 9.348-5.707s.08-.08.236-.23a49.534 49.534 0 0 1 7.023-5.414c7.339-4.744 19.734-10.373 34.816-7.824l372.092 60.187s13.591 11.483-4.47 18.155z" fill="#3f3d56"/><path d="M921.25 77.092l77.9-55.27 34.334 5.937-33.62 58.452s-77.72.618-78.614-9.119zM725.129 43.517L880.294 0l25.013 5.226-70.091 31.53-21.91 24.508-88.177-17.747z" fill="#3f3d56"/><path d="M972.141 108.81c-26.838 3.221-63.62 4.365-63.62 4.365s-189.025 15.679-330.706-42.631c0 0-20.608-10.806-1.465-25.344l.065.266s30.57 20.662 176.636 37.914z" fill="#21a32f"/><path d="M947.198 107.616l69.376 28.324 17.426-1.935-41.496-31.185s-50.189-10.703-45.306 4.796z" fill="#3f3d56"/><path d="M601.544 48.492c-3.313.058-10.896-5.496-15.61-9.23a49.534 49.534 0 0 1 7.023-5.413c3.8 2.916 10.565 7.64 14.326 7.47 5.428-.242-.756 7.087-5.74 7.173z" fill="#21a32f"/><path d="M916.702 205.532l-44.539 2.328-125.22-84.44-23.246-15.676-11.299-7.619c21.187-17.907 107.616 6.783 107.616 6.783 1.656 1.397 2.18 3.717 2.105 6.28-.142 4.801-2.397 10.453-3.266 12.465-.21.485-.338.757-.338.757z" fill="#3f3d56"/></svg>

<svg data-name="Layer 1" xmlns="http://www.w3.org/2000/svg" width="1136" height="647.595"><circle cx="248" cy="214.523" r="86" fill="#ff6584"/><path d="M1100.4 611.792a174.165 174.165 0 0 1-15.93 12.73 201.787 201.787 0 0 1-42.43 22.81c-62.35-1.5-154.01-9.15-269.71-13.23q-12.945-4.424-26.48-9.58-17.91-6.825-36.85-15c-52.44-22.66-106.28-37.39-159.61-46.19q-17.19-2.835-34.29-4.86c-240.82-28.8-462.9 55.82-488.62 66.05H24l15.82-30.64L309 72.523l62.95 161.62 20.09 51.59 55.37-75.98 28.59-39.23 130.2 149.27 36.8-81.27 254.78 207.92 14.21 11.59 14.38 11.74 4.58 3.74 136.21 111.16z" fill="#f2f2f2"/><path opacity=".1" d="M285 177.523L311 120.523 347 203.523 316 143.523 285 177.523z"/><path d="M549.39 563.333q-17.19-2.835-34.29-4.86l-123.06-272.74z" opacity=".1"/><path opacity=".1" d="M447.411 209.752L476 187.523 606 337.523 474 209.523 447.411 209.752z"/><path opacity=".1" d="M606.197 319.789L866 568.523 830.464 576.904 606.197 319.789z"/><path d="M1136 625.023c0 19.37-32.96 23.78-93.96 22.31-62.35-1.5-154.01-9.15-269.71-13.23-43.76-1.54-90.97-2.58-141.33-2.58-313.7 0-631 40.17-631-6.5 0-11 14.12-21.5 39.82-31.14 76.2-28.58 254.18-49.51 467.4-52.88q14.55-.24 29.31-.35 15.63-.135 31.47-.13c84.77 0 165.21 2.76 237.46 7.71.23.02.45.04.68.05q8.7.6 17.23 1.24 9.315.705 18.43 1.45c1.25.1 2.5.2 3.74.31.9.07 1.8.15 2.69.23 1.64.13 3.28.27 4.9.42a.914.914 0 0 1 .17.01q4.47.39 8.88.78c.31.03.62.06.93.08 85.45 7.75 156.07 18.76 204.05 31.87 43.9 11.99 68.84 25.73 68.84 40.35zM70.887 458.182c0 64.016 40.16 115.817 89.79 115.817" fill="#3f3d56"/><path d="M160.678 574c0-64.736 44.816-117.12 100.2-117.12m-157.458 7.105c0 60.809 25.61 110.014 57.258 110.014" fill="#21a32f"/><path d="M160.678 574c0-82.718 51.8-149.652 115.817-149.652" fill="#3f3d56"/><path d="M141.788 574.816s12.734-.392 16.571-3.125 19.588-5.996 20.54-1.613 19.137 21.797 4.76 21.913-33.404-2.239-37.234-4.572-4.637-12.603-4.637-12.603z" fill="#a8a8a8"/><path d="M183.916 590.466c-14.377.116-33.404-2.24-37.235-4.573-2.917-1.777-4.08-8.152-4.468-11.094-.27.012-.425.017-.425.017s.806 10.27 4.637 12.603 22.858 4.688 37.234 4.572c4.15-.033 5.584-1.51 5.505-3.696-.577 1.32-2.16 2.146-5.248 2.17z" opacity=".2"/><path d="M762.887 449.182c0 64.016 40.16 115.817 89.79 115.817z" fill="#3f3d56"/><path d="M852.678 565c0-64.736 44.816-117.12 100.2-117.12zM795.42 454.984c0 60.809 25.61 110.014 57.258 110.014z" fill="#21a32f"/><path d="M852.678 565c0-82.718 51.8-149.652 115.817-149.652z" fill="#3f3d56"/><path d="M833.788 565.816s12.734-.392 16.571-3.125 19.588-5.996 20.54-1.613 19.137 21.797 4.76 21.913-33.404-2.239-37.234-4.572-4.637-12.603-4.637-12.603z" fill="#a8a8a8"/><path d="M875.916 581.466c-14.377.116-33.404-2.24-37.235-4.573-2.917-1.777-4.08-8.152-4.468-11.094-.27.012-.425.017-.425.017s.806 10.27 4.637 12.603 22.858 4.688 37.234 4.572c4.15-.033 5.584-1.51 5.505-3.696-.577 1.32-2.16 2.146-5.248 2.17z" opacity=".2"/><path fill="#3f3d56" d="M481 440.479H499V472.566H481z"/><circle cx="490" cy="449.088" r="3.522" fill="#f2f2f2"/><path d="M492.182 413.059s-5.478 31.775 4.383 32.87 1.096-33.966 1.096-33.966z" fill="#ffb9b9"/><path d="M498.756 304.586s-11.504 109.02-8.217 110.664 12.052 3.835 13.696 2.192 8.218-69.029 8.218-69.029l-4.931-35.062z" fill="#575a89"/><path d="M498.756 304.586s-11.504 109.02-8.217 110.664 12.052 3.835 13.696 2.192 8.218-69.029 8.218-69.029l-4.931-35.062z" opacity=".1"/><path fill="#2f2e41" d="M519.848 255.554H554.362V292.807H519.848z"/><path d="M527.792 272.263s-1.096 24.105-8.765 25.749 7.122 29.583 7.122 29.583l23.01-2.191 5.478-32.87s-12.6-2.192-8.218-19.175z" fill="#ffb9b9"/><path d="M527.792 272.263s-1.096 24.105-8.765 25.749 7.122 29.583 7.122 29.583l23.01-2.191 5.478-32.87s-12.6-2.192-8.218-19.175z" opacity=".1"/><path fill="#ffb9b9" d="M528.888 547.829L530.531 557.142 540.393 554.951 538.201 545.637 528.888 547.829z"/><path fill="#ffb9b9" d="M560.115 533.585L556.828 543.446 567.237 548.924 567.785 540.707 560.115 533.585z"/><path d="M517.383 385.667s-13.148 38.349-10.409 56.428 13.696 104.09 13.696 104.09 12.6 8.218 20.27-1.096l-5.478-73.41s1.096-44.376 5.478-39.993 21.366 55.88 21.366 55.88l-3.287 46.567s1.644 14.244 11.505 8.217l13.696-51.497s-4.383-69.029-6.574-71.768-16.435-34.514-16.435-34.514z" fill="#2f2e41"/><circle cx="539.023" cy="267.058" r="15.887" fill="#ffb9b9"/><path d="M522.862 306.23s6.026 8.765 13.696 2.739 12.052-6.575 12.052-6.575l9.314 5.479-2.192 21.366 3.287 59.167s-39.992 3.287-42.184-1.096 2.74-23.01 2.74-23.01l-7.122-39.992V306.23z" fill="#21a32f"/><path d="M535.462 322.117s-9.861-30.132-13.148-30.68-12.6 6.027-12.6 6.027-13.697 4.383-13.697 7.122 2.192 2.74 2.192 2.74l7.67 14.79s3.286 13.15 2.19 21.915a88.14 88.14 0 0 0-.547 15.887s-12.053 72.316-6.026 74.507 6.026 4.383 6.026 4.383 8.765 4.93 10.409 2.739 17.53-96.42 17.53-96.42 8.219-15.888.001-23.01z" fill="#575a89"/><path d="M537.653 322.117s4.931-11.505 2.192-19.175c0 0 2.739-.548 3.835-2.191s0-9.861 2.739-10.41 23.01 0 24.105 1.097 4.383 8.765 4.383 8.765h-1.644l-12.052 19.722s6.026 37.254 4.93 43.28 15.888 31.227 18.08 32.87 12.052 27.94 7.669 30.68-42.732 20.27-44.375 11.505-13.149-61.359-13.149-61.359-.548-29.035 1.096-36.157 2.191-18.627 2.191-18.627z" fill="#575a89"/><path d="M563.402 409.772s-11.505 37.801 0 36.158 8.765-37.254 8.765-37.254z" fill="#ffb9b9"/><path d="M539.321 554.97s9.083 2.595 8.434 8.434a9.716 9.716 0 0 1-5.839 7.785 5.864 5.864 0 0 0-2.595 5.84c.649 3.892-5.19 9.731-14.922 7.136s-7.785-5.19-7.785-5.19a11.268 11.268 0 0 1 4.541-7.137c3.893-2.595 8.435-11.678 8.435-12.327s1.297-5.19 1.297-5.19 5.19-3.244 8.434.649zm19.15-12.62s-9.86 4.383-7.67 9.861 9.314 13.149 10.41 21.366 10.409 15.34 16.983 10.957-1.096-13.148-1.096-13.148-8.218-15.34-8.765-18.627 1.095-6.574-2.192-7.67-7.67-2.739-7.67-2.739z" fill="#2f2e41"/><path d="M572.99 305.955s-1.37-6.3.273-2.465 13.696 50.402 2.74 78.342c0 0-1.096 34.514-2.192 34.514s-14.244-.548-13.696-4.383 1.644-65.741 1.644-69.576 1.917-28.762 1.917-28.762z" opacity=".1"/><path d="M570.524 296.368a33.12 33.12 0 0 1 4.383 7.122c1.643 3.835 13.696 50.402 2.739 78.342 0 0-1.096 34.514-2.191 34.514s-14.244-.548-13.697-4.383 1.644-65.741 1.644-69.576-3.287-29.583-3.287-29.583z" fill="#575a89"/><path d="M530.067 239.088c-5.749 1.797-10.04 6.493-14.04 10.995a23.298 23.298 0 0 0-3.92 5.365 21.605 21.605 0 0 0-1.582 7.886q-.4 6.287-.255 12.593c.092 4.027.339 8.156-.9 11.99-1.196 3.705-3.688 6.838-5.399 10.337-2.73 5.58-3.36 12.353-.84 18.032 1.387 3.126 3.632 5.786 5.31 8.766a27.151 27.151 0 0 1 3.12 17.463l7.888-10.22c5.053-6.545 10.265-13.442 11.687-21.588 2.062-11.815-4.24-23.388-5.484-35.317-.347-3.326-.23-6.918 1.652-9.682 2.78-4.08 8.824-5.522 10.495-10.167.242 1.945 11.895 8.14 13.298 6.935a14.51 14.51 0 0 1-2.201 14.015c-1.128 1.4-2.515 2.579-3.615 4.001-2.849 3.684-3.497 8.652-3.095 13.291s1.738 9.146 2.444 13.75a102.113 102.113 0 0 1 .853 13.824c.053 3.2-.035 6.77-2.279 9.051a27.395 27.395 0 0 0 9.861-6.043 49.113 49.113 0 0 1 4.919-4.662c3.529-2.546 8.31-3.301 11.189-6.564 2.57-2.914 2.98-7.188 2.376-11.025s-2.076-7.49-2.816-11.304a30.364 30.364 0 0 1 .762-14.584c1.048-3.433 2.72-6.743 2.925-10.326.417-7.31-5.22-13.424-10.638-18.348-8.118-7.375-20.69-11.911-31.715-8.464z" fill="#2f2e41"/><path d="M995.395 104.367c-4.857 1.793-13.383 3.26-23.254 4.444-26.838 3.22-63.62 4.364-63.62 4.364s-189.025 15.679-330.706-42.631c0 0-20.608-10.806-1.465-25.344a61.778 61.778 0 0 1 9.348-5.707s.08-.08.236-.23a49.534 49.534 0 0 1 7.023-5.414c7.339-4.744 19.734-10.373 34.816-7.824l372.092 60.187s13.591 11.483-4.47 18.155z" fill="#f2f2f2"/><path d="M921.25 77.092l77.9-55.27 34.334 5.937-33.62 58.452s-77.72.618-78.614-9.119z" fill="#f2f2f2"/><path fill="#f2f2f2" d="M725.129 43.517L880.294 0 905.307 5.226 835.216 36.756 813.306 61.264 725.129 43.517z"/><path d="M972.141 108.81c-26.838 3.221-63.62 4.365-63.62 4.365s-189.025 15.679-330.706-42.631c0 0-20.608-10.806-1.465-25.344l.065.266s30.57 20.662 176.636 37.914z" fill="#f2f2f2"/><path d="M947.198 107.616l69.376 28.324 17.426-1.935-41.496-31.185s-50.189-10.703-45.306 4.796zM601.544 48.492c-3.313.058-10.896-5.496-15.61-9.23a49.534 49.534 0 0 1 7.023-5.413c3.8 2.916 10.565 7.64 14.326 7.47 5.428-.242-.756 7.087-5.74 7.173zm315.158 157.04l-44.539 2.328-125.22-84.44-23.246-15.676-11.299-7.619c21.187-17.907 107.616 6.783 107.616 6.783 1.656 1.397 2.18 3.717 2.105 6.28-.142 4.801-2.397 10.453-3.266 12.465-.21.485-.338.757-.338.757z" fill="#f2f2f2"/><path d="M995.395 104.367c-4.857 1.793-13.383 3.26-23.254 4.444-26.838 3.22-63.62 4.364-63.62 4.364s-189.025 15.679-330.706-42.631c0 0-20.608-10.806-1.465-25.344a61.778 61.778 0 0 1 9.348-5.707s.08-.08.236-.23a49.534 49.534 0 0 1 7.023-5.414c7.339-4.744 19.734-10.373 34.816-7.824l372.092 60.187s13.591 11.483-4.47 18.155z" fill="#3f3d56"/><path d="M921.25 77.092l77.9-55.27 34.334 5.937-33.62 58.452s-77.72.618-78.614-9.119z" fill="#3f3d56"/><path fill="#3f3d56" d="M725.129 43.517L880.294 0 905.307 5.226 835.216 36.756 813.306 61.264 725.129 43.517z"/><path d="M972.141 108.81c-26.838 3.221-63.62 4.365-63.62 4.365s-189.025 15.679-330.706-42.631c0 0-20.608-10.806-1.465-25.344l.065.266s30.57 20.662 176.636 37.914z" fill="#21a32f"/><path d="M947.198 107.616l69.376 28.324 17.426-1.935-41.496-31.185s-50.189-10.703-45.306 4.796z" fill="#3f3d56"/><path d="M601.544 48.492c-3.313.058-10.896-5.496-15.61-9.23a49.534 49.534 0 0 1 7.023-5.413c3.8 2.916 10.565 7.64 14.326 7.47 5.428-.242-.756 7.087-5.74 7.173z" fill="#21a32f"/><path d="M916.702 205.532l-44.539 2.328-125.22-84.44-23.246-15.676-11.299-7.619c21.187-17.907 107.616 6.783 107.616 6.783 1.656 1.397 2.18 3.717 2.105 6.28-.142 4.801-2.397 10.453-3.266 12.465-.21.485-.338.757-.338.757z" fill="#3f3d56"/></svg>
